fs/window_apps_32_regular.svg

<svg viewBox="0 0 32 32" fill="none" xmlns="http://www.w3.org/2000/svg" height="1em" width="1em">
  <path d="M7.5 3C5.01472 3 3 5.01472 3 7.5V24.5C3 26.9853 5.01472 29 7.5 29H11.6115C11.5385 28.6784 11.5 28.3437 11.5 28V27H7.5C6.11929 27 5 25.8807 5 24.5V11H27V11.5H28C28.3437 11.5 28.6784 11.5385 29 11.6115V7.5C29 5.01472 26.9853 3 24.5 3H7.5ZM5 7.5C5 6.11929 6.11929 5 7.5 5H24.5C25.8807 5 27 6.11929 27 7.5V9H5V7.5ZM24 13C22.3431 13 21 14.3431 21 16V21H16C14.3431 21 13 22.3431 13 24V28C13 29.6569 14.3431 31 16 31H26.5C28.9853 31 31 28.9853 31 26.5V16C31 14.3431 29.6569 13 28 13H24ZM23 16C23 15.4477 23.4477 15 24 15H28C28.5523 15 29 15.4477 29 16V21H23V16ZM16 23H21V29H16C15.4477 29 15 28.5523 15 28V24C15 23.4477 15.4477 23 16 23ZM26.5 29H23V23H29V26.5C29 27.8807 27.8807 29 26.5 29Z" fill="#212121"/>
</svg>

<svg viewBox="0 0 32 32" fill="none" xmlns="http://www.w3.org/2000/svg" height="1em" width="1em">
  <path d="M7.5 3A4.5 4.5 0 0 0 3 7.5v17A4.5 4.5 0 0 0 7.5 29h4.111a4.513 4.513 0 0 1-.111-1v-1h-4A2.5 2.5 0 0 1 5 24.5V11h22v.5h1c.344 0 .678.039 1 .111V7.5A4.5 4.5 0 0 0 24.5 3h-17ZM5 7.5A2.5 2.5 0 0 1 7.5 5h17A2.5 2.5 0 0 1 27 7.5V9H5V7.5ZM24 13a3 3 0 0 0-3 3v5h-5a3 3 0 0 0-3 3v4a3 3 0 0 0 3 3h10.5a4.5 4.5 0 0 0 4.5-4.5V16a3 3 0 0 0-3-3h-4Zm-1 3a1 1 0 0 1 1-1h4a1 1 0 0 1 1 1v5h-6v-5Zm-7 7h5v6h-5a1 1 0 0 1-1-1v-4a1 1 0 0 1 1-1Zm10.5 6H23v-6h6v3.5a2.5 2.5 0 0 1-2.5 2.5Z" fill="#212121"/>
</svg>
